icons/breezeLight/actions/22/path-exclusion.svg

<svg height="22" viewBox="0 0 22 22" width="22" xmlns="http://www.w3.org/2000/svg"><g fill="#4d4d4d"><path d="m13.5 4a4.5 4.5 0 0 0 -4.5 4.5 4.5 4.5 0 0 0 .0273438.5h3.9726562v3.972656a4.5 4.5 0 0 0 .5.027344 4.5 4.5 0 0 0 4.5-4.5 4.5 4.5 0 0 0 -4.5-4.5zm-.5 8.972656a4.5 4.5 0 0 1 -3.9726562-3.972656h-5.0273438v9h9z" fill-opacity=".501961"/><path d="m13.5 3a5.5 5.5 0 0 0 -5.4765625 5h-5.0234375v11h11v-5.023438a5.5 5.5 0 0 0 5-5.476562 5.5 5.5 0 0 0 -5.5-5.5zm0 1a4.5 4.5 0 0 1 4.5 4.5 4.5 4.5 0 0 1 -4 4.472656v-4.972656h-4.9726562a4.5 4.5 0 0 1 4.4726562-4zm-9.5 5h4.0234375a5.5 5.5 0 0 0 4.9765625 4.976562v4.023438h-9zm5.0273438 0h3.9726562v3.972656a4.5 4.5 0 0 1 -3.9726562-3.972656z"/></g></svg>

<?xml version="1.0" encoding="UTF-8" standalone="no"?>
<svg
   xmlns:dc="http://purl.org/dc/elements/1.1/"
   xmlns:cc="http://creativecommons.org/ns#"
   xmlns:rdf="http://www.w3.org/1999/02/22-rdf-syntax-ns#"
   xmlns:svg="http://www.w3.org/2000/svg"
   xmlns="http://www.w3.org/2000/svg"
   xmlns:sodipodi="http://sodipodi.sourceforge.net/DTD/sodipodi-0.dtd"
   xmlns:inkscape="http://www.inkscape.org/namespaces/inkscape"
   viewBox="0 0 22 22"
   version="1.1"
   id="svg8"
   sodipodi:docname="path-exclusion.svg"
   width="22"
   height="22"
   inkscape:version="1.0.2 (e86c870879, 2021-01-15, custom)">
  <metadata
     id="metadata12">
    <rdf:RDF>
      <cc:Work
         rdf:about="">
        <dc:format>image/svg+xml</dc:format>
        <dc:type
           rdf:resource="http://purl.org/dc/dcmitype/StillImage" />
        <dc:title></dc:title>
      </cc:Work>
    </rdf:RDF>
  </metadata>
  <sodipodi:namedview
     pagecolor="#ffffff"
     bordercolor="#666666"
     borderopacity="1"
     objecttolerance="10"
     gridtolerance="10"
     guidetolerance="10"
     inkscape:pageopacity="0"
     inkscape:pageshadow="2"
     inkscape:window-width="1873"
     inkscape:window-height="1048"
     id="namedview10"
     showgrid="true"
     inkscape:zoom="22.273864"
     inkscape:cx="1.0304799"
     inkscape:cy="3.1649951"
     inkscape:window-x="1867"
     inkscape:window-y="1080"
     inkscape:window-maximized="0"
     inkscape:current-layer="svg8">
    <inkscape:grid
       type="xygrid"
       id="grid837"
       empspacing="4" />
  </sodipodi:namedview>
  <defs
     id="defs3051">
    <style
       type="text/css"
       id="current-color-scheme">
      .ColorScheme-Text {
        color:#4d4d4d;
      }
      </style>
  </defs>
  <path
     id="rect850"
     style="fill:#4d4d4d;stroke:none;stroke-width:0.989;fill-opacity:0.50196081"
     d="M 13.5 4 A 4.5 4.5 0 0 0 9 8.5 A 4.5 4.5 0 0 0 9.0273438 9 L 13 9 L 13 12.972656 A 4.5 4.5 0 0 0 13.5 13 A 4.5 4.5 0 0 0 18 8.5 A 4.5 4.5 0 0 0 13.5 4 z M 13 12.972656 A 4.5 4.5 0 0 1 9.0273438 9 L 4 9 L 4 18 L 13 18 L 13 12.972656 z " />
  <path
     id="rect839"
     style="fill:#4d4d4d;stroke:none;stroke-width:0.946895;fill-opacity:1"
     d="M 13.5 3 A 5.5 5.5 0 0 0 8.0234375 8 L 3 8 L 3 19 L 14 19 L 14 13.976562 A 5.5 5.5 0 0 0 19 8.5 A 5.5 5.5 0 0 0 13.5 3 z M 13.5 4 A 4.5 4.5 0 0 1 18 8.5 A 4.5 4.5 0 0 1 14 12.972656 L 14 8 L 9.0273438 8 A 4.5 4.5 0 0 1 13.5 4 z M 4 9 L 8.0234375 9 A 5.5 5.5 0 0 0 13 13.976562 L 13 18 L 4 18 L 4 9 z M 9.0273438 9 L 13 9 L 13 12.972656 A 4.5 4.5 0 0 1 9.0273438 9 z " />
</svg>
